src/assets/img/typescriptIcon.svg

<svg width="61" height="60" viewBox="0 0 61 60" fill="none" xmlns="http://www.w3.org/2000/svg">
<path d="M60.6697 4.7749C60.2331 2.48295 58.4596 0.627558 56.1949 0.136426C56.0858 0.109141 55.9766 0.109141 55.8402 0.0818554C55.8129 0.0818554 55.7856 0.0272851 55.7584 0H5.71742C5.69013 0.0272851 5.66285 0.0818554 5.60828 0.0818554C3.34361 0.463847 1.43365 2.26467 0.915234 4.55662C0.887949 4.63847 0.833379 4.74761 0.778809 4.85675V55.0341C0.806094 55.0887 0.860664 55.116 0.860664 55.1705C1.40637 57.6808 2.93433 59.236 5.41728 59.8636C5.49914 59.8909 5.55371 59.9454 5.60828 60H55.8402C55.8948 59.9727 55.9221 59.9181 55.9766 59.8909C58.4596 59.3179 59.9875 57.8172 60.6151 55.3342C60.6424 55.2524 60.6151 55.1433 60.6424 55.0614C60.6424 55.0341 60.697 55.0068 60.7242 54.9795V4.93861C60.7242 4.88404 60.6697 4.85675 60.6697 4.7749ZM35.5674 33.2606H35.2672C33.0025 33.2606 30.7106 33.2606 28.4459 33.2606C28.3368 33.2606 28.2276 33.2606 28.1185 33.2606C28.1185 33.2879 28.0912 33.2879 28.0912 33.3151C28.0912 33.4243 28.0912 33.5334 28.0912 33.6426V54.6794H22.1158V33.2879H14.6124V28.513H35.5401V33.2606H35.5674ZM55.7038 47.5307C55.6492 48.4584 55.5128 49.3588 55.1308 50.2319C55.0216 50.5048 54.9398 50.7503 54.8034 51.0232C54.3122 52.06 53.4937 52.7967 52.5387 53.397C51.4473 54.0791 50.2467 54.4611 48.9916 54.7067C47.6001 54.9795 46.2086 55.0614 44.7897 55.0068C44.1076 54.9795 43.4255 54.9795 42.7433 54.8977C41.1335 54.7067 39.551 54.352 38.0776 53.6426C37.9957 53.6153 37.8866 53.4789 37.8866 53.397C37.8866 51.6235 37.8866 49.8499 37.8866 48.0764C37.8866 48.0491 37.8866 48.0218 37.8866 47.9673C38.3232 48.2674 38.7597 48.5675 39.1963 48.8131C40.2604 49.4407 41.4337 49.8772 42.6342 50.1501C43.671 50.3956 44.7079 50.4229 45.7447 50.3684C46.536 50.3411 47.3272 50.1501 48.0367 49.7954C48.6642 49.4679 49.1826 49.0314 49.3191 48.2947C49.4555 47.6398 49.4009 46.985 49.0189 46.412C48.4732 45.5935 47.7092 45.075 46.8634 44.6385C45.9084 44.1746 44.9534 43.7654 43.9712 43.3288C42.5251 42.6739 41.1062 41.9645 39.933 40.8731C38.978 39.9727 38.2686 38.9086 37.9412 37.6262C37.7502 36.8622 37.6956 36.0982 37.7229 35.3342C37.7502 33.4516 38.4323 31.8417 39.7693 30.5048C40.8607 29.4134 42.1976 28.7585 43.671 28.3765C44.6806 28.131 45.6901 27.94 46.727 27.9127C47.4637 27.9127 48.2004 27.8308 48.9098 27.8581C50.0285 27.8854 51.1199 27.94 52.2113 28.2128C52.9207 28.4038 53.6574 28.5948 54.3668 28.7585C54.5032 28.7858 54.5578 28.8677 54.5578 29.0314C54.5578 30.7231 54.5578 32.442 54.5578 34.1337C54.5578 34.1883 54.5578 34.2428 54.5305 34.3247C54.3122 34.1883 54.1212 34.0791 53.9302 33.97C53.0571 33.4789 52.1294 33.1514 51.1744 32.9059C50.1103 32.6603 49.0462 32.4966 47.9548 32.5239C47.2181 32.5512 46.4541 32.6603 45.772 32.9059C44.9262 33.206 44.244 33.6971 43.9439 34.5975C43.6983 35.307 43.8893 35.9072 44.3259 36.4802C44.8716 37.1896 45.6083 37.6808 46.3995 38.0628C47.4637 38.5812 48.5551 39.0177 49.5919 39.5089C50.7925 40.0819 51.993 40.6548 53.0025 41.5007C53.8757 42.2374 54.6669 43.0559 55.1035 44.1473C55.3491 44.8022 55.5674 45.4843 55.5674 46.221C55.6765 46.6576 55.7311 47.0941 55.7038 47.5307Z" fill="white"/>
</svg>

<svg width="61" height="60" fill="none" xmlns="http://www.w3.org/2000/svg"><path d="M60.67 4.775C60.233 2.483 58.46.628 56.195.136c-.11-.027-.218-.027-.355-.054-.027 0-.054-.055-.082-.082H5.718c-.028.027-.055.082-.11.082C3.344.464 1.434 2.265.915 4.557a2.659 2.659 0 0 1-.136.3v50.177c.027.055.082.082.082.136.545 2.51 2.073 4.066 4.556 4.694a.49.49 0 0 1 .191.136H55.84c.055-.027.082-.082.137-.11 2.483-.572 4.01-2.073 4.638-4.556.027-.082 0-.19.027-.273 0-.027.055-.054.082-.081V4.939c0-.055-.054-.082-.054-.164ZM35.567 33.26h-7.449c0 .027-.027.027-.027.054V54.68h-5.975V33.288h-7.504v-4.775H35.54v4.748h.027Zm20.137 14.27c-.055.927-.191 1.828-.573 2.7-.11.274-.191.52-.328.792-.49 1.037-1.31 1.774-2.264 2.374-1.092.682-2.292 1.064-3.547 1.31-1.392.273-2.783.354-4.202.3-.682-.027-1.364-.027-2.047-.11-1.61-.19-3.192-.545-4.665-1.254-.082-.028-.191-.164-.191-.246V47.967c.436.3.873.6 1.31.846 1.063.628 2.237 1.064 3.437 1.337 1.037.246 2.074.273 3.11.218a5.577 5.577 0 0 0 2.293-.573c.627-.327 1.146-.764 1.282-1.5.136-.655.082-1.31-.3-1.883-.546-.819-1.31-1.337-2.156-1.773-.955-.464-1.91-.874-2.892-1.31-1.446-.655-2.865-1.364-4.038-2.456-.955-.9-1.664-1.964-1.992-3.247a8.171 8.171 0 0 1-.218-2.292c.027-1.882.71-3.492 2.046-4.83 1.092-1.09 2.429-1.745 3.902-2.128 1.01-.245 2.02-.436 3.056-.463.737 0 1.473-.082 2.183-.055 1.119.027 2.21.082 3.301.355.71.19 1.446.382 2.156.546.136.027.19.109.19.272v5.103c0 .054 0 .109-.026.19-.219-.136-.41-.245-.6-.354-.874-.491-1.802-.819-2.757-1.064-1.064-.246-2.128-.41-3.22-.382-.736.027-1.5.136-2.182.382-.846.3-1.528.791-1.828 1.691-.246.71-.055 1.31.382 1.883.546.71 1.282 1.2 2.074 1.583 1.064.518 2.155.955 3.192 1.446 1.2.573 2.401 1.146 3.41 1.992.874.736 1.665 1.555 2.101 2.646.246.655.464 1.337.464 2.074.11.437.164.873.137 1.31Z" fill="#fff"/></svg>
